X:1
T:Fuyons tous d'amour
T:Jean de Castro
T:Source : Livre de chansons à 3 parties---Paris---A.le Roy & R.Ballard---1575. Editor : André Vierendeels (03/10/15).
T:Notes : Original clefs : G2, C2, C3 
T:Fuyons tous d'amour
C:Jean de Castro
%%score [ 1 2 3 ]
L:1/8
Q:1/4=100
M:2/2
K:F
V:1 treble nm="Superius" snm="S"
V:2 treble nm="Altus" snm="A"
V:3 treble-8 nm="Tenor" snm="T"
V:1
 c2 B2 A2 G2 | F2 E2 D4 | d2 c2 B2 A2 | G2 G2 A4 | c2 B2 A2 G2 | F2 E2 D4 | d6 c2 | B2 A2 G4 | %8
w: Fuy- ons tous d'a-|mour, le jeu,|fuy- ons tous d'a-|mour, le jeu,|fuy- ons tous d'a-|mour, le jeu,|fuy- ons|tous d'a- mour,|
 g2 f2 e2 d2 | c4 f2 e2 | d2 c2 B2 A2 | G4 F4 | F4 E4 | F4 c4- | c2 c2 A2 A2 | c2 d2 c4 | A8 | %17
w: fuy- ons tous d'a-|mour, fuy- ons|tous d'a- mour, le|jeu com-|me le|feu, ay-|* me qui cou-|dra les fem-|mes,|
 z4 f4- | f2 f2 d2 d2 | e2 e2 f2 ed | e4 c4 | z2 F2 G4 | A4 c4- | c2 d2 e2 f2 | g2 d2 f4 | %25
w: ay-|* me qui vou-|dra le fem- * *|* mes,|les- fem-|mes, ser-|* ve qui vou-|dra les da-|
 c4 c2 d2 | e2 f2 d4- | d2 d2 c4 | d4 A2 B2 | c4 G2 A2 | B4 d2 e2 | f6 f2 | e2 f2 d4 | c4 B4 | %34
w: mes, ser- ve|qui vou- dra|_ les da-|mes, quand à|moy, quand- à|moy, quand à|moy je|n'en ay cu-|re, ny|
 A2 F2 G4 | A4 z4 | z2 f4 e2 | d4 c4 | d6 d2 | c4 A4 | B4 G4 | A4 c4- | c2 B2 A2 G2 | F2 E2 D4 | %44
w: les pro- cu-|re,|ja- mais|on n'y|gai- gne|rien, je|le voy|bien, fuy-|* ons tous d'a-|mour, le jeu,|
 d2 c2 B2 A2 | G2 G2 A4 | c2 B2 A2 G2 | F2 E2 D4 | d6 c2 | B2 A2 G4 | g2 f2 e2 d2 | c4 f2 e2 | %52
w: fuy- ons tous d'a-|mour, le jeu,|fuy- ons tous d'a-|mour, le jeu,|fuy- ons|tous d'a- mour,|fuy- ons tous d'a-|mour, fuy- ons|
 d2 c2 B2 A2 | G4 F4 | G4 F4- | F2 ED E4 | F8 |] %57
w: tous d'a- * le|jeu, com|me le|_ _ _ _|feu.|
V:2
 z4 F2 E2 | D2 C2 B,2 A,2 | G,4 G2 F2 | E2 E2 F4 | C2 D2 E2 E2 | F2 G2 A4 | F2 E2 D4 | %7
w: Fuy- ons|tous d'a- mour, le|jeu, fuy- ons|tous d'a- mour,|fuy- ons tous d'a-|mour, le jeu,|fuy- ons tous,|
 G2 F2 E2 D2 | C4 c2 B2 | A2 G2 F4- | F2 F2 G4 | z4 c4 | B4 G4 | A4 A4- | A2 A2 F2 F2 | A2 B2 A4 | %16
w: fuy- ons tous d'a-|mour, fuy- ons|tous d'a- mour,|_ le jeu,|com-|me le|feu, ay-|* me qui vou-|dra les fem-|
 F2 c4 c2 | A2 A2 d2 d2 | c4 =B4 | z2 c4 c2 | G2 G2 A4 | G2 F3 E/D/ E2 | F4 F2 G2 | A2 B2 c2 A2 | %24
w: mes, ay- me|qui vou- dra le|fem- mes,|ay- me|qui vou- dra|les fem- * * *|mes, ser- ve|qui vou- dra les|
 B4 A2 A2- | A2 G2 F2 F2 | c2 F4 D2 | A2 F2 E4 | D4 F2 G2 | A4 E2 F2 | G4 z4 | z2 A4 B2 | %32
w: da- mes, ser-|* ve qui vou-|dra, qui vou-|dra les da-|mes, quand à|moy, quand à|moy,|quand à|
 c2 A2 A2 G2 | A4 D2 G2 | F2 F2 E4 | F2 A4 G2 | F4 G4 | F4 E4 | D2 E2 F2 G2 | A6 F2 | %40
w: moy, je n'en ay|cu- re, ny|les pro- cu-|re, ja- mais|on n'y|gai- gne|rien, _ _ _|_ je|
 G2 F3 E/D/ E2 | F4 z4 | F6 E2 | D2 C2 B,2 A,2 | G,4 G2 F2 | E2 E2 F4 | C2 D2 E2 E2 | F2 G2 A4 | %48
w: le voy _ _ _|bien,|fuy- ons|tous d'a- mour, le|jeu, fuy- ons|tous d'a- mour,|fuy- ons tous d'a-|mour, le jeu,|
 F2 E2 D4 | G2 F2 E2 D2 | C4 c2 B2 | A2 G2 F4- | F2 F2 G4 | z4 c4 | B6 A2 | G4 G4 | A8 |] %57
w: fuy- ons tous,|fuy- ons tous d'a-|mour, fuy- ons|tous d'a- mour,|_ le jeu,|com-|me _|_ le|feu.|
V:3
 z8 | z8 | z8 | z4 F2 G2 | A2 B2 c4 | z4 f2 e2 | d2 c2 B2 A2 | G4 g2 f2 | e2 d2 c4 | f2 e2 d2 c2 | %10
w: |||Fuy- ons|tous d'a- mour,|fuy- ons|tous d'a- mour, le|jeu, fuy- ons|tous d'a- mour,|fuy- ons tous d'a-|
 B2 A2 G4- | G4 A4 | B4 c4 | F8- | F8 | z8 | z4 f4- | f2 f2 d2 d2 | f2 a2 g4 | c4 z2 c2- | %20
w: mour, le jeu|_ com-|me le|feu,|_||ay-|* me qui vou-|dra le fem-|mes, ay-|
 c2 c2 A2 A2 | B2 d2 c4 | F8 | z8 | z4 F4- | F2 G2 A2 B2 | c2 d2 B4 | A8 | z8 | A2 B2 c4 | %30
w: * me qui vou-|dra les fem-|mes,||ser-|* ve qui vou-|dra les da-|mes,||quand à moy,|
 G2 A2 B4 | d3 e f2 d2 | c2 d2 B4 | A4 z2 G2 | d2 d2 c4 | F2 f4 e2 | d4 c4 | d4 A4 | B2 c2 d2 e2 | %39
w: quand à moy,|quand à moy, je|n'en ay cu-|re, ny|les pro- cu-|re, ja- mais|on n'y|gai- gne|rien, _ _ _|
 f4 F4 | B4 c4 | F8 | z8 | z8 | z8 | z4 F2 G2 | A2 B2 c4 | z4 f2 e2 | d2 c2 B2 A2 | G4 g2 f2 | %50
w: _ je|le voy|bien,||||fuy- ons|tous d'a- mour,|fuy- ons|tous d'a- mour le|jeu, fuy- ons|
 e2 d2 c4 | f2 e2 d2 c2 | B2 A2 G4- | G4 A4 | B8 | c8 | F8 |] %57
w: tous d'a- mour,|fuy- ons tous d'a-|mour, le jeu,|_ com-|me|le|feu.|

